project/porshe/images/work/icon-work02.svg

<svg width="29" height="29" viewBox="0 0 29 29" fill="none" xmlns="http://www.w3.org/2000/svg">
<path d="M5.24664 10.5398H9.90108V15.1786H5.24664V10.5398Z" fill="white"/>
<path d="M16.8927 10.5398H12.2382V15.1786H16.8927V10.5398Z" fill="white"/>
<path d="M19.0989 10.5398H23.7534V15.1786H19.0989V10.5398Z" fill="white"/>
<path d="M9.90108 17.1414H5.24664V21.7801H9.90108V17.1414Z" fill="white"/>
<path d="M12.2382 17.1414H16.8927V21.7801H12.2382V17.1414Z" fill="white"/>
<path d="M23.7534 17.1414H19.0989V21.7801H23.7534V17.1414Z" fill="white"/>
<path fill-rule="evenodd" clip-rule="evenodd" d="M23.7534 0H21.1096V2.56763H7.89046V0.0146484H5.24664V2.56763H0V28.9999H29V2.56763H23.7534V0ZM2.65576 26.4045H26.4805V7.91919H2.65576V26.4045Z" fill="white"/>
</svg>

<svg width="29" height="29" fill="none" xmlns="http://www.w3.org/2000/svg"><path d="M5.247 10.54H9.9v4.639H5.247v-4.64zm11.646 0h-4.655v4.639h4.655v-4.64zm2.206 0h4.654v4.639H19.1v-4.64zm-9.198 6.601H5.247v4.64H9.9v-4.64zm2.337 0h4.655v4.64h-4.655v-4.64zm11.515 0H19.1v4.64h4.654v-4.64z" fill="#fff"/><path fill-rule="evenodd" clip-rule="evenodd" d="M23.753 0H21.11v2.568H7.89V.015H5.247v2.553H0V29h29V2.568h-5.247V0zM2.656 26.404H26.48V7.92H2.655v18.485z" fill="#fff"/></svg>
